X:40
T: HOPSA SCHWABENLIESEL
N: E1036
O: Europa, Mitteleuropa, Deutschland, Schwaben
R: Tanz - Lied
M: 2/4
L: 1/16
K: G
 | B4B4 | B2ABc2B2
A2^G2A2=G2 | F2e2d2c2
B4B4 | B2ABc2B2
A2D2E2F2 | G4z4
F4F4 | F2EFG2F2
E2^D2E2=D2 | ^C2B2A2G2
F4F4 | F2EFG2F2
E2D2^C2E2 | D4c4
B4B4 | B2ABc2B2
A2^G2A2=G2 | F2e2d2c2
B4B4 | B2ABc2B2
A2D2E2F2 | G4z4

